app/public/dtpr-icons/research.svg

<svg width="36" height="36" viewBox="0 0 36 36" fill="none" xmlns="http://www.w3.org/2000/svg">
<path d="M31.8564 8.8453L19 1.42265C18.3812 1.06538 17.6188 1.06538 17 1.42265L4.14359 8.8453C3.52479 9.20257 3.14359 9.86282 3.14359 10.5774V25.4226C3.14359 26.1372 3.52479 26.7974 4.14359 27.1547L17 34.5774C17.6188 34.9346 18.3812 34.9346 19 34.5774L31.8564 27.1547C32.4752 26.7974 32.8564 26.1372 32.8564 25.4226V10.5774C32.8564 9.86282 32.4752 9.20256 31.8564 8.8453Z" fill="black" stroke="black" stroke-width="2"/>
<mask id="mask0" mask-type="alpha" maskUnits="userSpaceOnUse" x="9" y="8" width="18" height="21">
<path fill-rule="evenodd" clip-rule="evenodd" d="M9.00011 8.00021H27V28.0112H9.00011V8.00021Z" fill="white"/>
</mask>
<g mask="url(#mask0)">
<path fill-rule="evenodd" clip-rule="evenodd" d="M25.9971 20.4742H17.9531C17.3991 20.4742 16.9511 20.9232 16.9511 21.4772V21.9842C16.9511 22.5372 17.3991 22.9872 17.9531 22.9872H19.9841C19.8911 23.0552 19.7941 23.1202 19.6951 23.1822C18.9131 23.6702 18.0101 23.9292 17.0821 23.9292C16.4141 23.9292 15.7671 23.7982 15.1591 23.5412C14.5701 23.2922 14.0421 22.9362 13.5881 22.4822C13.1331 22.0272 12.7761 21.4982 12.5281 20.9112C12.2701 20.3022 12.1411 19.6552 12.1411 18.9882C12.1411 17.5922 12.7251 16.2822 13.7321 15.3532L15.0251 16.6462C15.4171 17.0372 16.0521 17.0372 16.4431 16.6462L17.6901 15.3992C18.0811 15.0072 18.0811 14.3722 17.6901 13.9822L12.0021 8.29322C11.6101 7.90222 10.9761 7.90222 10.5841 8.29322L9.33811 9.54022C8.94611 9.93222 8.94611 10.5672 9.33811 10.9582L11.5121 13.1322C10.9101 13.7052 10.3961 14.3702 9.99611 15.0972C9.67511 15.6812 9.42811 16.3042 9.26011 16.9482C9.08811 17.6112 9.00011 18.2972 9.00011 18.9882C9.00011 20.0782 9.21411 21.1362 9.63611 22.1332C10.0431 23.0962 10.6251 23.9602 11.3671 24.7022C11.6571 24.9932 11.9671 25.2582 12.2931 25.4982H10.1931C9.64011 25.4982 9.19111 25.9482 9.19111 26.5012V27.0082C9.19111 27.5622 9.64011 28.0112 10.1931 28.0112H23.2621C23.8151 28.0112 24.2651 27.5622 24.2651 27.0082V26.5012C24.2651 25.9482 23.8151 25.4982 23.2621 25.4982H21.8691C22.7811 24.8282 23.5441 23.9712 24.1051 22.9872H25.9971C26.5511 22.9872 27.0001 22.5372 27.0001 21.9842V21.4772C27.0001 20.9232 26.5511 20.4742 25.9971 20.4742Z" fill="white"/>
</g>
</svg>

<svg xmlns="http://www.w3.org/2000/svg" width="36" height="36" fill="none"><path fill="#000" stroke="#000" stroke-width="2" d="M31.856 8.845 19 1.423a2 2 0 0 0-2 0L4.144 8.845a2 2 0 0 0-1 1.732v14.846a2 2 0 0 0 1 1.732L17 34.577a2 2 0 0 0 2 0l12.856-7.422a2 2 0 0 0 1-1.732V10.577a2 2 0 0 0-1-1.732Z"/><mask id="a" width="18" height="21" x="9" y="8" mask-type="alpha" maskUnits="userSpaceOnUse"><path fill="#fff" fill-rule="evenodd" d="M9 8h18v20.011H9z" clip-rule="evenodd"/></mask><g mask="url(#a)"><path fill="#fff" fill-rule="evenodd" d="M25.997 20.474h-8.044c-.554 0-1.002.45-1.002 1.003v.507c0 .553.448 1.003 1.002 1.003h2.031q-.14.102-.289.195a4.93 4.93 0 0 1-2.613.747 4.91 4.91 0 0 1-3.494-1.447 4.92 4.92 0 0 1-1.447-3.494c0-1.396.584-2.706 1.591-3.635l1.293 1.293a1.004 1.004 0 0 0 1.418 0L17.69 15.4a1.003 1.003 0 0 0 0-1.417l-5.688-5.689a1.004 1.004 0 0 0-1.418 0L9.338 9.54a1 1 0 0 0 0 1.418l2.174 2.174a8.079 8.079 0 0 0-.145 11.57q.436.436.926.796h-2.1c-.553 0-1.002.45-1.002 1.003v.507c0 .554.45 1.003 1.002 1.003h13.07c.552 0 1.002-.449 1.002-1.003v-.507c0-.553-.45-1.003-1.003-1.003H21.87a8.1 8.1 0 0 0 2.236-2.51h1.892c.554 0 1.003-.45 1.003-1.004v-.507c0-.554-.449-1.003-1.003-1.003" clip-rule="evenodd"/></g></svg>
